packages/atlas/src/components/_illustrations/svgs/joystream-logo-icon.svg

<svg width="40" height="40" viewBox="0 0 40 40" fill="none" xmlns="http://www.w3.org/2000/svg">
    <path d="M40 20C40 8.9543 31.0457 0 20 0C8.9543 0 0 8.9543 0 20C0 31.0457 8.9543 40 20 40C31.0457 40 40 31.0457 40 20Z"
          fill="#4038FF"/>
    <path fill-rule="evenodd" clip-rule="evenodd"
          d="M22.5 9H24.46V18.25C24.46 20.5 23.62 22.55 22.23 24.12C22.4 23.37 22.5 22.59 22.5 21.79V9ZM16.09 25.12C15.601 25.7256 14.9846 26.2161 14.2847 26.5566C13.5847 26.8971 12.8183 27.0792 12.04 27.09L12.63 25.12H16.09ZM17.26 21.78V21.58H13.66L13.08 23.55H16.96C17.16 23 17.26 22.4 17.26 21.78ZM26.03 9H28V14.71C28 16.96 27.16 19.01 25.77 20.58C25.94 19.83 26.03 19.05 26.03 18.25V9ZM20.84 21.8V9H18.87V21.8C18.87 23.6283 18.1444 25.3818 16.8526 26.6755C15.5607 27.9692 13.8083 28.6974 11.98 28.7H11.58L11 30.65H11.98C14.329 30.6474 16.581 29.713 18.242 28.052C19.903 26.391 20.8374 24.139 20.84 21.79V21.8Z"
          fill="white"/>
</svg>

<svg xmlns="http://www.w3.org/2000/svg" fill="none" viewBox="0 0 40 40">
  <defs/>
  <rect width="40" height="40" fill="#4038FF" rx="20"/>
  <path fill="#fff" fill-rule="evenodd" d="M22.5 9h1.96v9.25c0 2.25-.84 4.3-2.23 5.87.17-.75.27-1.53.27-2.33V9zm-6.41 16.12a5.3 5.3 0 01-4.05 1.97l.59-1.97h3.46zm1.17-3.34v-.2h-3.6l-.58 1.97h3.88c.2-.55.3-1.15.3-1.77zM26.03 9H28v5.71c0 2.25-.84 4.3-2.23 5.87.17-.75.26-1.53.26-2.33V9zm-5.19 12.8V9h-1.97v12.8a6.9 6.9 0 01-6.89 6.9h-.4L11 30.65h.98a8.87 8.87 0 008.86-8.86z" clip-rule="evenodd"/>
</svg>
